X: 13
T: The Red Haired Girl
M: 3/4
L: 1/8
B: "O'Neill's 13"
N: "With feeling" "setting 2" "collected by J. O'Neill"
Z: "Transcribed by Norbert Paap, norbertp@bdu.uva.nl"
K:D
A/2-G/2 FA | B>-G E-D CE | D2 (E/2F/2G) F-A | B>-G E-C DD | D3 A/2-G/2 FA |
(d2 {ed}cd) e-c | d3 A/2-G/2 FA | .B>-.G EC DD | D3 ||
A/2-G/2 FA | d2 (cd/2e/2) dB | GE F>G FA | d2 (cd/2e/2) fd | d{ed}c3/4B/4 A>G FA |
d2 (c/2d/2e/2f/2) dB | G>E FG A/2B/2~=c | B>G EC DD | D3 ||


